X:6388
T:Sweets of May, The
O:england
M:6/8
L:1/8
R:24-bar set dance for 4 to 8 couples
K:G
|: "D7"d2c \
| "G"BcB "D7"ABA | "G"G2G G2A |      B2G "Em"GAB | "Am"c3 "D7"d2c \
| "G"BcB "D7"ABA | "G"G2G G2A | "(C)"B2B "D7"ABA | "G"G3 :|
|: z3 \
| "Am"ABA A2G | "Em"E2F G3 | "Am"ABA     c2d | "Em"e2d c2B \
| "Am"ABA A2G | "Em"E2F G3 | "Am"A2A "Em"BAG | "Am"A3 :|
|: "D7"B2c \
| "G"dz2 dz2 | ~D3 ~D3 | "D7"cz2 cz2 | ~D3 ~D3 \
|    G2D G2A | B2G B2c | "D7"ded cBA | "G"G3 :|
%%sep 5 5 200
P: Bb instruments:
K:A
|: "E7"e2d \
| "A"cdc "E7"BcB | "A"A2A A2B |      c2A "F#m"ABc | "Bm"d3 "E7"e2d \
| "A"cdc "E7"BcB | "A"A2A A2B | "(D)"c2c "E7"BcB | "A"A3 :|
|: z3 \
| "Bm"BcB B2A | "F#m"F2G A3 | "Bm"BcB     d2e | "F#m"f2e d2c \
| "Bm"BcB B2A | "F#m"F2G A3 | "Bm"B2B "F#m"cBA | "Bm"B3 :|
|: "E7"c2d \
| "A"ez2 ez2 | ~E3 ~E3 | "E7"dz2 dz2 | ~E3 ~E3 \
|    A2E A2B | c2A c2d | "E7"efe dcB | "A"A3 :|


